X:1
T:Dieweil die Sünd
T:André Vierendeels 
T:Melody by Georg Vogler (1625) (Soprano voice)
T:Source : Catechismus---Würzburg---J.Volmari---1652. Editor : André Vierendeels (04/09/17).
T:Notes : Original clef : C1, other voices supplied edotorially Original note values have been quartered Text Middle German   
T:Dieweil die Sünd
T:©
T:©
T:©
C:André Vierendeels
Z:©
%%score [ 1 2 3 ]
L:1/8
Q:1/4=100
M:3/4
K:F
V:1 treble nm="Soprano" snm="S"
V:2 treble-8 nm="Tenor" snm="T"
V:3 bass nm="Bass" snm="B"
V:1
 z2 z2 G2 | G4 D2 | G4 B2 | A3 G A2 | G4 c2 | c4 B2 | A4 G2 | G2 B2 A2 | G4 d2 | d4 B2 | c4 d2 | %11
w: Die-|weil die|Sünd ist|wi- * der|Gott, mein|höch- stes|Gut und|sein _ Ge-|bott: wil|Gott von|E- wig-|
 d4 A2 | d4 d2 | d3 c B2 | A4 G2 | F3 c A2 | G4 G2 | E4 F2 | G4 A2 | E4 F2 | G4 G2 | B4 c2 | %22
w: keit be-|reit, e-|wi- * ge|Frewd, e-|wi- * ges|Leyd, den|From- men|zwar das|e- wig|Gut, den|Bö- sen|
 d4 c2 | B4 A2 | G6 |] %25
w: die e-|wi- ge|Glut.|
V:2
 d6 | B4 d2 | B4 d2 | f2 e2 A2 | B4 c2 | e4 d2 | c4 B2 | B4 d2 | B4 A2 | B4 d2 | c2 A4 | B4 A2 | %12
w: Die-|weil die|Sünd ist|wi- * der|Gott, mein|höch- stes|Gut und|sein Ge-|bott: wil|Gott von|E- wig-|keit be-|
 G4 A2 | B3 A d2 | f4 c2 | f3 e d2 | B4 d2 | G4 A2 | d4 f2 | c2 G2 F2 | c4 B2 | d4 A2 | F2 G2 A2 | %23
w: reit, e-|wi- * ge|Frewd, e-|wi- * ges|Leyd, den|From- men|zwar das|e- * wig|Gut, den|Bö- sen|die e- *|
 G4 ^F2 | G6 |] %25
w: wi- ge|Glut.|
V:3
 G,6 | G,2 D,2 F,2 | G,4 G,2 | D,2 E,2 D,2 | G,4 E,2 | C,4 G,2 | F,4 G,2 | G,4 D,2 | G,4 ^F,2 | %9
w: Die-|weil _ die|Sünd ist|wi- * der|Gott, mein|höch- sten|Gut und|sein Ge-|bott: wil|
 G,4 G,2 | C,2 D,2 F,2 | G,4 F,2 | G,2 D,2 F,2 | G,3 F, G,2 | D,4 E,2 | A,3 E, F,2 | G,4 G,2 | %17
w: Gott von|E- * wig-|keit be-|* reit, e-|wi- * ge|Frewd, e-|wi- * ges|Leyd, den|
 C,4 F,2 | G,4 D,2 | C,4 D,2 | E,4 G,2 | G,4 F,2 | D,2 E,4 | G,2 D,4 | G,6 |] %25
w: From- men|zwar das|e- wig-|Gur, de|Bö- sen|die e-|wi- ge|Glut.|

